public/assets/tracks/iot.svg

<svg fill="none" height="131" viewBox="0 0 132 131" width="132" xmlns="http://www.w3.org/2000/svg"><path d="m122.92 77.249h-16.263v-16.2629h-8.131v36.5916h-65.0518v-65.0518h36.5917v-8.1314h-16.263v-16.26298h-8.1315v16.26298h-12.1972c-2.1559.0021-4.2229.8595-5.7474 2.384s-2.3819 3.5915-2.384 5.7474v12.1972h-16.26297v8.1315h16.26297v24.3944h-16.26297v8.1315h16.26297v12.1972c.0021 2.1559.8595 4.2233 2.384 5.7473 1.5245 1.525 3.5915 2.382 5.7474 2.384h12.1972v16.263h8.1315v-16.263h24.3944v16.263h8.1315v-16.263h12.1972c2.156-.003 4.222-.861 5.746-2.385 1.525-1.524 2.382-3.5907 2.385-5.7463v-12.1972h16.263z" fill="#fff"/><g stroke="#fff"><path d="m49.37 48.422h32.281v32.281h-32.281z" stroke-width="8.804"/><circle cx="107.329" cy="24.211" r="13.206" stroke-width="7.337"/><path d="m81.992 48.762 17.608-17.608" stroke-width="7.337"/></g></svg>

<svg xmlns="http://www.w3.org/2000/svg" width="132" height="131" fill="none" viewBox="0 0 132 131"><path fill="#fff" d="M122.92 77.249H106.657V60.9861H98.526V97.5777H33.4742V32.5259H70.0659V24.3945H53.8029V8.13152H45.6714V24.3945H33.4742C31.3183 24.3966 29.2513 25.254 27.7268 26.7785C26.2023 28.303 25.3449 30.37 25.3428 32.5259V44.7231H9.07983V52.8546H25.3428V77.249H9.07983V85.3805H25.3428V97.5777C25.3449 99.7336 26.2023 101.801 27.7268 103.325C29.2513 104.85 31.3183 105.707 33.4742 105.709H45.6714V121.972H53.8029V105.709H78.1973V121.972H86.3288V105.709H98.526C100.682 105.706 102.748 104.848 104.272 103.324C105.797 101.8 106.654 99.7333 106.657 97.5777V85.3805H122.92V77.249Z"/><rect width="32.281" height="32.281" x="49.37" y="48.422" stroke="#fff" stroke-width="8.804"/><circle cx="107.329" cy="24.211" r="13.206" stroke="#fff" stroke-width="7.337"/><line x1="81.992" x2="99.6" y1="48.762" y2="31.154" stroke="#fff" stroke-width="7.337"/></svg>
